X: 29055
T: Fair Donald
T: 8x32S 3C
P: Lady Dick Lauder's Strathspey
R: strathspey
C: RSCDS 29-4
C: 1997 by John Chambers, mods by T. Traub 11-3-02
D: J. Taylor Album
M: C
L: 1/8
%--------------------
K: Bb
|: F \
| "Bb"B/c/d BF "Eb"G>B "Bb"F>B | F>B d/c/B/c/ "F7"dc cd \
| "Gm"B/c/d BF "Eb"G>B "Bb"F>B | "Cm"G>B G/F/E/D/  "F7"C2 "Bb"B, :|
d \
| "Bb"~B2 dB f>B df | "Eb"e>g "Bb"d>f "Cm"g/f/e/d/ "F7"c>d \
| "Bb"~B2 dB f>B df | "Eb"e>g "Cm"g/f/e/d/ "F7"c2 "Bb"B ||
d \
| "Bb"~B2 dB f>B df | "Eb"e>g "Bb"df "Cm"g/f/e/d/ "F7"c>d \
| "Gm"B/c/d BF "Eb"G<B e<g | "Bb"f>b "Eb"g/f/e/d/ "F7"c2 "Bb"B |]
%%center Book29/29041-Fair_Donald.abc

%%sep 2 1 500
%%sep 1 1 500

